X: 1
T:I Would Have Preferred You First
C:Traditional/Arr. Paul K. MacNeil
D:CastleBayMusic.com
M:6/8
L:1/8
K:D
|:ABA c2d|efe c2e|dBB gBB|dBB BcB|
ABA c2d|efe c2e|dBB gBB|cAA A2:|
|:aga c2e|A2e c2e|aga c2e|gdB c2e|1
aga c2e|A2e c2e|dBB gBB|cAA A2e:|2
aga f2a|e2a c2e|dBB gBB|cAA A2|]
